__todo__/patreon.svg

<svg height="247" preserveAspectRatio="xMidYMid" viewBox="0 0 256 247" width="256" xmlns="http://www.w3.org/2000/svg"><path d="m45.1355837 0v246.35001h-45.1355837v-246.35001zm118.5215273 0c50.999569 0 92.342889 41.3433196 92.342889 92.3428889 0 50.9995691-41.34332 92.3428891-92.342889 92.3428891s-92.3428888-41.34332-92.3428888-92.3428891c0-50.9995693 41.3433198-92.3428889 92.3428888-92.3428889z" fill="#ff424d"/></svg>

<?xml version="1.0" encoding="UTF-8"?>
<svg width="256px" height="247px" viewBox="0 0 256 247" version="1.1" xmlns="http://www.w3.org/2000/svg" xmlns:xlink="http://www.w3.org/1999/xlink" preserveAspectRatio="xMidYMid">
    <g>
        <path d="M45.1355837,0 L45.1355837,246.35001 L0,246.35001 L0,0 L45.1355837,0 Z M163.657111,0 C214.65668,0 256,41.3433196 256,92.3428889 C256,143.342458 214.65668,184.685778 163.657111,184.685778 C112.657542,184.685778 71.3142222,143.342458 71.3142222,92.3428889 C71.3142222,41.3433196 112.657542,0 163.657111,0 Z" fill="#FF424D"></path>
    </g>
</svg>
